!!!ONB: MCCC : IFC0101_04 : Extracted Monophonic Melody
!!!COM: Chopin, Frédéric
!!!OPR: Scherzo No.2
!!!OMV: 4
!!!SCT: Op.31
!!!ODT: 1837///
**kern
*thru
*staff1
*Ipiano
*>I
*clefG2
*k[b-e-a-d-]
*f:
*M3/4
*MM126
=1
4cc[
8cc]
8dd-
8dd-
8cc
=2
*>A
8b
8a#
4b
4gg
=3
4b-[
8b-]
8cc
8cc
8b-
=4
8a
8g#
4a
4ff
=5
4a-[
8a-]
8b-
8b-
8a-
=6
8g
8f#
4g
4dd-
=7
4cc[
8cc]
8b-
8a-
8g
=8
8b-
8a-
8f
8g
8a-
8b
=9
[4cc
8cc]
8dd-
8b
8dd-
=10
8cc
8a#
8b
8aa-
8gg
8b
=11
4b-[
8b-]
8cc
8cc
8b-
=12
8b-
8g#
8a
8gg-
8ff
8a
=13
4a-[
8a-]
8cc-
8b-
8a-
=14
4g
8g#
8a
8a#
8b
=15
8cc#
8dd
8dd#
8ee
8aa
8gg#
=16
8ff#
8ee
8dd
8g#
8a
8b
=17
8cc#
8dd
8dd#
8ee
8aa
8gg#
=18
8ff#
8ee
8dd
8g#
8a
8b
=19
4cc#
8b
8cc
8ff
8ee
=20
8ee-
8dd
8dd-
8e
8f
8g
=21
8a-
8b-
8b
8cc
8ff
8ee
=22
8ee-
8dd
8dd-
8e
8f
8g
=23
8f
8e
2f
=24
*>B
2b-
8cc
8g
=25
8a-
8c
8e-
8a-
8b
8cc
=26
4dd
8ee-
8gg
8ff
8b
=27
2cc
4g
=28
2dd
8ee-
8b
=29
4cc
8b
8cc
8dd
8ee-
=30
4ff
8ee
8ff
8gg
8aa-
=31
2.gg[
=32
4gg]
8ff#
8gg
8bb
8aa
=33
4dd
2ff[
=34
4ff]
8ee
8ff
8aa
8gg
=35
4cc
2ee-[
=36
4ee-]
8dd
8ee-
8gg
8ff
=37
4b-
2dd-
=38
4a
2cc
=39
4g#
2b
=40
[4cc
8cc]
8dd-
8dd-
8cc
=41
*>A
8b
8a#
4b
4gg
=42
4b-[
8b-]
8cc
8cc
8b-
=43
8a
8g#
4a
4ff
=44
4a-[
8a-]
8b-
8b-
8a-
=45
8g
8f#
4g
4dd-
=46
4cc[
8cc]
8b-
8a-
8g
=47
8b-
8a-
8f
8g
8a-
8b
=48
[4cc
8cc]
8dd-
8b
8dd-
=49
8cc
8a#
8b
8aa-
8gg
8b
=50
4b-[
8b-]
8cc
8cc
8b-
=51
8b-
8g#
8a
8gg-
8ff
8a
=52
4a-[
8a-]
8cc-
8b-
8a-
=53
4g
8g#
8a
8a#
8b
=54
8cc#
8dd
8dd#
8ee
8aa
8gg#
=55
8ff#
8ee
8dd
8g#
8a
8b
=56
8cc#
8dd
8dd#
8ee
8aa
8gg#
=57
8ff#
8ee
8dd
8g#
8a
8b
=58
4cc#
8b
8cc
8ff
8ee
=59
8ee-
8dd
8dd-
8e
8f
8g
=60
8a-
8b-
8b
8cc
8ff
8ee
=61
8ee-
8dd
8dd-
8e
8f
8g
=62
8f
8e
2f
=63
*>B
2b-
8cc
8g
=64
8a-
8c
8e-
8a-
8b
8cc
=65
4dd
8ee-
8gg
8ff
8b
=66
2cc
4g
=67
2dd
8ee-
8b
=68
4cc
8b
8cc
8dd
8ee-
=69
4ff
8ee
8ff
8gg
8aa-
=70
2.gg[
=71
4gg]
8ff#
8gg
8bb
8aa
=72
4dd
2ff[
=73
4ff]
8ee
8ff
8aa
8gg
=74
4cc
2ee-[
=75
4ee-]
8dd
8ee-
8gg
8ff
=76
4b-
2dd-
=77
4a
2cc
=78
4g#
2b
=79
[4cc
8cc]
8dd-
8dd-
8cc
=80
*>A
8b
8a#
4b
4gg
=81
4b-[
8b-]
8cc
8cc
8b-
=82
8a
8g#
4a
4ff
=83
4a-[
8a-]
8b-
8b-
8a-
=84
8g
8f#
4g
4dd-
=85
4cc[
8cc]
8b-
8a-
8g
=86
8b-
8a-
8f
8g
8a-
8b
=87
[4cc
8cc]
8dd-
8b
8dd-
=88
8cc
8a#
8b
8aa-
8gg
8b
=89
4b-[
8b-]
8cc
8cc
8b-
=90
8b-
8g#
8a
8gg-
8ff
8a
=91
4a-[
8a-]
8cc-
8b-
8a-
=92
4g
8g#
8a
8a#
8b
=93
8cc#
8dd
8dd#
8ee
8aa
8gg#
=94
8ff#
8ee
8dd
8g#
8a
8b
=95
8cc#
8dd
8dd#
8ee
8aa
8gg#
=96
8ff#
8ee
8dd
8g#
8a
8b
=97
4cc#
8b
8cc
8ff
8ee
=98
8ee-
8dd
8dd-
8e
8f
8g
=99
8a-
8b-
8b
8cc
8ff
8ee
=100
8ee-
8dd
8dd-
8e
8f
8g
=101
8f
8e
2f
==
*-
